X: 600
T:St. Ruths Bush
S:Cherish The Ladies via Late Session (15/02/02 )
M:4/4
L:1/8
R:Reel
N:Posted to the woodenflute mailing list November 2002
Z:Pat Higgins / Steve Mansfield
K:ADor
(3Bcd|eAAB c2BA |GE~E2 EDEG|~A3B cBcd|eaag e2dg|
eA~A2 c2BA|GE~E2 EDEG|~A3G (3Bcd eg|dBGB A2 Bd:|
|~a3g a2ba|ea~a2 ba~a2|eggf ~g3a|eg~g2 ed  (3Bcd |
eaag abag|ea~a2 baag|edef~g3e|dBGB A2  (Bcd :||


